X: 4
T: Flags Of Dublin, The
Z: Damien Rogeau
S: https://thesession.org/tunes/2527#setting30969
R: reel
M: 4/4
L: 1/8
K: Dmaj
ADFA BEdB | ADFA BGGG | ADFA Bcdg | fdec d3B |
AD 3.F/.G/A BedB | AD .F/.G/A BGGG | AD 3.F/.G/A Bcdg | fdBc d3A |
dcdf e3g | fdec dcBA | dcdf e3g | fdBA d3A |
dcdf e3g | fdec dcBA | GBBA Bcde | fdec d2cB |
